X: 7838
T:the Snowflake
R:Reel
O:USA
M:4/4
K:D
(3ABc|\
d2fa fedf|edBc dBAF |1 \
 A,2C2 E2A2|cBAc BABc :|2 \
 Acef (3gfe cA|dcde d2 ::
(3ABc|\
d2fd edfd|a^g=gf edcB|1\
 _B2d2 =f2d2|_bg=fb g2 :|2 \
 Acef (3gfe cA|dcde d2 :|
